X:251
T:Parson in his Boots,The. RH.251
R:jig
S:Rev.R.Harrison’s MS,c1815,Cumbria
O:England
A:Temple Sowerby,Cumbria
Z:vmp.Simon Wilson. Review PJH, 2008.
M:6/8
L:1/8
Q:3/8=120
K:D
c/d/|e2e e2e|efd cBc|ded fed|cAc e3|!
e2e e2e|efd cBc|ded fga|gec d2:|!
|:f/g/|a2f g2e|f2d cBc|ded fed|cAc efg|!
a2f g2e|f2d cBc|ded fga|gec d2:|

